icon/pk/clothes-crew-neck.svg

<svg viewBox="0 0 48 48" fill="none" xmlns="http://www.w3.org/2000/svg" height="1em" width="1em">
  <path d="M37 17V37M11 37V44H37V37M11 37H4V17C4 14 6 10.5 9 8C12 5.5 18 4 18 4H30C30 4 36 5.5 39 8C42 10.5 44 14 44 17V37H37M11 37V17" stroke="black" stroke-width="4" stroke-linecap="round" stroke-linejoin="round"/>
  <path d="M30 4C30 7.31371 27.3137 10 24 10C20.6863 10 18 7.31371 18 4" stroke="black" stroke-width="4" stroke-linecap="round" stroke-linejoin="round"/>
</svg>

<svg width="48" height="48" fill="none" xmlns="http://www.w3.org/2000/svg"><path d="M37 17v20m-26 0v7h26v-7m-26 0H4V17c0-3 2-6.5 5-9s9-4 9-4h12s6 1.5 9 4 5 6 5 9v20h-7m-26 0V17" stroke="#000" stroke-width="4" stroke-linecap="round" stroke-linejoin="round"/><path d="M30 4a6 6 0 0 1-12 0" stroke="#000" stroke-width="4" stroke-linecap="round" stroke-linejoin="round"/></svg>
